amazon.svg

<svg viewBox="0 0 24 24" xmlns="http://www.w3.org/2000/svg"><path d="M14.8891 14.0398C13.4944 15.0678 11.4729 15.6162 9.73251 15.6162C7.29203 15.6162 5.09501 14.7136 3.43288 13.2124C3.30231 13.0944 3.41931 12.9334 3.576 13.0254C5.36977 14.069 7.58769 14.6969 9.87872 14.6969C11.4238 14.6969 13.1236 14.3772 14.6865 13.7138C14.9226 13.6136 15.12 13.8684 14.8891 14.0398M15.4689 13.3764C15.2913 13.1487 14.2905 13.2688 13.8413 13.3221C13.7044 13.3388 13.6836 13.2197 13.8068 13.134C14.604 12.573 15.9119 12.735 16.0644 12.923C16.217 13.1121 16.0248 14.4232 15.2757 15.049C15.1608 15.1451 15.051 15.0939 15.1023 14.9664C15.2704 14.5464 15.6476 13.6052 15.4689 13.3764" fill="#ff9900" fill-rule="evenodd" opacity="1" stroke="none"/><path d="M13.8726 9.17358L13.8726 8.62823C13.8726 8.54571 13.9353 8.49032 14.0106 8.49032L16.452 8.49032C16.5304 8.49032 16.593 8.54672 16.593 8.62823L16.593 9.09517C16.592 9.17358 16.5262 9.27595 16.4092 9.43782L15.144 11.2442C15.6142 11.2326 16.1104 11.3026 16.5366 11.543C16.6328 11.5973 16.6588 11.6766 16.6662 11.755L16.6662 12.3369C16.6662 12.4163 16.5784 12.5093 16.4865 12.4612C15.7353 12.0674 14.7376 12.0246 13.9071 12.4654C13.8225 12.5114 13.7337 12.4194 13.7337 12.34L13.7337 11.7874C13.7337 11.6986 13.7347 11.5471 13.8235 11.4123L15.2892 9.31043L14.0136 9.31043C13.9353 9.31043 13.8726 9.25505 13.8726 9.17358M4.96652 12.5762L4.22372 12.5762C4.15269 12.5709 4.09629 12.5176 4.09108 12.4497L4.09108 8.6376C4.09108 8.56135 4.15477 8.50075 4.2342 8.50075L4.92683 8.50075C4.99892 8.50389 5.05638 8.55928 5.0616 8.62823L5.0616 9.12655L5.07517 9.12655C5.25591 8.64489 5.59541 8.42035 6.05303 8.42035C6.51789 8.42035 6.80838 8.64489 7.01728 9.12655C7.19695 8.64489 7.60541 8.42035 8.04318 8.42035C8.35449 8.42035 8.69511 8.5488 8.90298 8.83717C9.13805 9.15785 9.09 9.62382 9.09 10.0323L9.08889 12.4383C9.08889 12.5145 9.0252 12.5762 8.94577 12.5762L8.20408 12.5762C8.12991 12.5709 8.07032 12.5114 8.07032 12.4383L8.07032 10.4178C8.07032 10.2569 8.08495 9.85578 8.04941 9.7032C7.99408 9.44728 7.82797 9.37518 7.61275 9.37518C7.43308 9.37518 7.245 9.49532 7.16875 9.68755C7.09251 9.87978 7.0998 10.2015 7.0998 10.4178L7.0998 12.4383C7.0998 12.5145 7.03611 12.5762 6.95668 12.5762L6.21498 12.5762C6.13975 12.5709 6.08123 12.5114 6.08123 12.4383L6.08017 10.4178C6.08017 9.99263 6.15018 9.36683 5.6226 9.36683C5.08878 9.36683 5.10965 9.97689 5.10965 10.4178L5.10965 12.4383C5.10965 12.5145 5.04595 12.5762 4.96652 12.5762M18.695 8.42035C19.7972 8.42035 20.3937 9.36683 20.3937 10.5703C20.3937 11.733 19.7345 12.6555 18.695 12.6555C17.6127 12.6555 17.0235 11.709 17.0235 10.5296C17.0235 9.34283 17.62 8.42035 18.695 8.42035M18.7012 9.1986C18.1538 9.1986 18.1194 9.94458 18.1194 10.4094C18.1194 10.8754 18.112 11.8699 18.695 11.8699C19.2706 11.8699 19.2978 11.0676 19.2978 10.5786C19.2978 10.2569 19.2842 9.87245 19.1871 9.56737C19.1034 9.30208 18.9374 9.1986 18.7012 9.1986M21.8228 12.5762L21.0832 12.5762C21.009 12.5709 20.9494 12.5114 20.9494 12.4383L20.9484 8.62505C20.9547 8.55508 21.0163 8.50075 21.0915 8.50075L21.78 8.50075C21.8448 8.50389 21.898 8.54778 21.9126 8.60732L21.9126 9.19025L21.9262 9.19025C22.1342 8.66898 22.4256 8.42035 22.9386 8.42035C23.2718 8.42035 23.5968 8.54045 23.8057 8.86952C24 9.1746 24 9.68755 24 10.0563L24 12.456C23.9916 12.5229 23.93 12.5762 23.8569 12.5762L23.112 12.5762C23.0441 12.5709 22.9877 12.5208 22.9804 12.456L22.9804 10.3854C22.9804 9.96858 23.0284 9.35848 22.5155 9.35848C22.3347 9.35848 22.1686 9.47968 22.0861 9.66351C21.9816 9.89649 21.9681 10.1284 21.9681 10.3854L21.9681 12.4383C21.967 12.5145 21.9022 12.5762 21.8228 12.5762M11.9264 10.7552C11.9264 11.0446 11.9337 11.286 11.7874 11.543C11.6694 11.7519 11.4813 11.8804 11.2734 11.8804C10.9882 11.8804 10.821 11.6631 10.821 11.3424C10.821 10.7093 11.3883 10.5944 11.9264 10.5944L11.9264 10.7552ZM12.6754 12.5657C12.6263 12.6096 12.5553 12.6127 12.4999 12.5835C12.2534 12.3787 12.2084 12.2836 12.0736 12.0882C11.6662 12.504 11.3768 12.6284 10.8492 12.6284C10.2234 12.6284 9.73768 12.2429 9.73768 11.4708C9.73768 10.8681 10.0636 10.4575 10.5296 10.2569C10.9328 10.0793 11.496 10.048 11.9264 9.99891L11.9264 9.90277C11.9264 9.72623 11.94 9.51725 11.8354 9.36475C11.7456 9.22791 11.5722 9.17142 11.4186 9.17142C11.1355 9.17142 10.8837 9.31671 10.8221 9.61758C10.8096 9.68442 10.7604 9.75023 10.6926 9.75337L9.97278 9.67602C9.91218 9.66245 9.84425 9.61338 9.86202 9.52043C10.0271 8.64702 10.8168 8.38375 11.5231 8.38375C11.8846 8.38375 12.3568 8.47985 12.642 8.75358C13.0034 9.09102 12.969 9.54129 12.969 10.0312L12.969 11.1888C12.969 11.5367 13.1131 11.6892 13.2489 11.8773C13.296 11.9441 13.3064 12.0246 13.2458 12.0747C13.0944 12.2011 12.8248 12.4362 12.6764 12.5678L12.6754 12.5657ZM2.18862 10.7552C2.18862 11.0446 2.19595 11.286 2.04969 11.543C1.93168 11.7519 1.74462 11.8804 1.53572 11.8804C1.25049 11.8804 1.08443 11.6631 1.08443 11.3424C1.08443 10.7093 1.65171 10.5944 2.18862 10.5944L2.18862 10.7552ZM2.93769 12.5657C2.88863 12.6096 2.81755 12.6127 2.76217 12.5835C2.51562 12.3787 2.47177 12.2836 2.33598 12.0882C1.92849 12.504 1.64017 12.6284 1.11157 12.6284C0.486831 12.6284-2.84217e-14 12.2429-2.84217e-14 11.4708C-2.84217e-14 10.8681 0.327 10.4575 0.791908 10.2569C1.19515 10.0793 1.75823 10.048 2.18862 9.99891L2.18862 9.90277C2.18862 9.72623 2.20223 9.51725 2.0988 9.36475C2.00792 9.22791 1.83452 9.17142 1.68198 9.17142C1.39888 9.17142 1.14605 9.31671 1.08443 9.61758C1.07188 9.68442 1.02277 9.75023 0.955892 9.75337L0.235015 9.67602C0.174508 9.66245 0.107631 9.61338 0.124292 9.52043C0.290446 8.64702 1.07917 8.38375 1.78537 8.38375C2.14685 8.38375 2.61905 8.47985 2.90428 8.75358C3.26575 9.09102 3.23128 9.54129 3.23128 10.0312L3.23128 11.1888C3.23128 11.5367 3.37542 11.6892 3.51125 11.8773C3.55929 11.9441 3.56977 12.0246 3.50917 12.0747C3.35765 12.2011 3.08815 12.4362 2.93977 12.5678L2.93769 12.5657Z" fill="#221f1f" fill-rule="evenodd" opacity="1" stroke="none"/></svg>

<svg viewBox="0 0 24 24" xmlns="http://www.w3.org/2000/svg"><path d="M14.89 14.04c-1.396 1.028-3.417 1.576-5.157 1.576a9.331 9.331 0 0 1-6.3-2.404c-.13-.118-.014-.279.143-.187 1.794 1.044 4.012 1.672 6.303 1.672 1.545 0 3.245-.32 4.808-.983.236-.1.433.154.202.326m.58-.664c-.178-.227-1.178-.107-1.628-.054-.137.017-.157-.102-.034-.188.797-.561 2.105-.399 2.257-.211.153.19-.04 1.5-.788 2.126-.115.096-.225.045-.174-.083.168-.42.546-1.36.367-1.59" fill="#f90" fill-rule="evenodd"/><path d="M13.873 9.174v-.546c0-.082.062-.138.138-.138h2.441c.078 0 .141.057.141.138v.467c-.001.079-.067.18-.184.343l-1.265 1.806c.47-.011.966.059 1.393.299.096.054.122.134.13.212v.582c0 .08-.089.172-.18.124a2.813 2.813 0 0 0-2.58.004c-.085.046-.173-.046-.173-.125v-.553a.66.66 0 0 1 .09-.375l1.465-2.102h-1.275c-.079 0-.141-.055-.141-.136m-8.906 3.402h-.743a.14.14 0 0 1-.133-.126V8.638a.14.14 0 0 1 .143-.137h.693a.14.14 0 0 1 .135.127v.499h.013c.18-.482.52-.707.978-.707.465 0 .755.225.964.707.18-.482.588-.707 1.026-.707.311 0 .652.129.86.417.235.32.187.787.187 1.195l-.001 2.406a.14.14 0 0 1-.143.138h-.742a.141.141 0 0 1-.134-.138v-2.02c0-.161.015-.562-.02-.715-.056-.256-.222-.328-.437-.328-.18 0-.368.12-.444.313-.076.192-.07.513-.07.73v2.02a.14.14 0 0 1-.142.138h-.742a.14.14 0 0 1-.134-.138v-2.02c0-.425.07-1.051-.458-1.051-.534 0-.513.61-.513 1.05v2.021a.14.14 0 0 1-.143.138M18.695 8.42c1.102 0 1.699.947 1.699 2.15 0 1.163-.66 2.085-1.699 2.085-1.082 0-1.672-.946-1.672-2.125 0-1.187.597-2.11 1.672-2.11m.006.779c-.547 0-.582.746-.582 1.21 0 .466-.007 1.46.576 1.46.576 0 .603-.801.603-1.29 0-.322-.014-.707-.11-1.012-.085-.265-.25-.368-.487-.368m3.122 3.377h-.74a.141.141 0 0 1-.134-.138V8.625a.14.14 0 0 1 .142-.124h.689a.142.142 0 0 1 .133.106v.583h.013c.208-.521.5-.77 1.013-.77.333 0 .658.12.867.45.194.305.194.818.194 1.186v2.4a.143.143 0 0 1-.143.12h-.745a.14.14 0 0 1-.132-.12v-2.07c0-.417.048-1.028-.465-1.028-.18 0-.346.122-.429.306-.104.232-.118.464-.118.721v2.053a.143.143 0 0 1-.145.138m-9.897-1.82c0 .289.008.53-.139.787-.118.209-.306.337-.514.337-.285 0-.452-.217-.452-.538 0-.633.567-.748 1.105-.748v.161Zm.75 1.81a.155.155 0 0 1-.176.018c-.247-.205-.292-.3-.426-.496-.408.416-.697.54-1.225.54-.626 0-1.111-.385-1.111-1.157 0-.603.326-1.014.792-1.214.403-.178.966-.209 1.396-.258v-.096c0-.177.014-.386-.09-.538-.09-.137-.264-.194-.417-.194-.284 0-.535.146-.597.447-.012.066-.062.132-.13.135l-.72-.077c-.06-.014-.128-.063-.11-.156.165-.873.955-1.136 1.661-1.136.362 0 .834.096 1.119.37.361.337.327.787.327 1.277v1.158c0 .348.144.5.28.688.047.067.057.148-.003.198-.152.126-.421.361-.57.493v-.002Zm-10.487-1.81c0 .289.007.53-.14.787-.117.209-.304.337-.513.337-.286 0-.452-.217-.452-.538 0-.633.568-.748 1.105-.748v.161Zm.749 1.81a.155.155 0 0 1-.176.018c-.246-.205-.29-.3-.426-.496-.408.416-.696.54-1.224.54-.625 0-1.112-.385-1.112-1.157 0-.603.327-1.014.792-1.214.403-.178.966-.209 1.397-.258v-.096c0-.177.013-.386-.09-.538-.091-.137-.264-.194-.417-.194-.283 0-.536.146-.598.447-.012.066-.061.132-.128.135l-.721-.077c-.06-.014-.127-.063-.11-.156.165-.873.954-1.136 1.66-1.136.362 0 .834.096 1.12.37.36.337.326.787.326 1.277v1.158c0 .348.144.5.28.688.048.067.059.148-.002.198-.151.126-.42.361-.57.493l-.001-.002Z" fill="#221f1f" fill-rule="evenodd"/></svg>
